communes/3863.svg

<?xml version="1.0" encoding="UTF-8"?>
<!DOCTYPE svg  PUBLIC '-//W3C//DTD SVG 1.1//EN'  'http://www.w3.org/Graphics/SVG/1.1/DTD/svg11.dtd'>
<svg width="438" height="480" viewBox="21 15 438 480" xmlns="http://www.w3.org/2000/svg">
<metadata>xmlns:rdf="http://www.w3.org/1999/02/22-rdf-syntax-ns#"
         xmlns:dc="http://purl.org/dc/elements/1.1/"&gt;

 dc:title="Wappen Jenaz (CH-GR)"
 dc:date="2006-10-26"
 dc:format="image/svg+xml"
 dc:language="de"&gt;
 dc:creator="http://de.wikipedia.org/wiki/Benutzer:Bernina"</metadata>
<title>Wappen Jenaz (CH-GR)</title>
<defs>
<clipPath id="a">
<path d="m360 4140a3240 3240 0 0 0 6480 0v-3870h-6480v3870z"/>
</clipPath>
<style type="text/css"><![CDATA[
  .Rand2 { stroke: #202020; stroke-width:30; }
  .Rand3 { stroke: #202020; stroke-width:45; }
  .Rand6 { stroke: #202020; stroke-width:90; }
  .Blau { fill: #0000ff; }
  .Gold { fill: #ffef00; }
  ]]></style>
</defs>
<g transform="scale(.066667)" fill="none" fill-rule="evenodd" stroke-miterlimit="10" stroke-width="10">
<g clip-path="url(#a)">
<path class="Blau" d="m-225 3600h7650v-3825h-7650v3825z"/>
<path class="Gold" d="m-225 3600v3825h7650v-3825h-7650z"/>
<path class="Blau" d="m1575 3600v3825h1350v-3825h-1350z"/>
<path class="Blau" d="m4275 3600v3825h1350v-3825h-1350z"/>
<path class="Gold Rand2" d="m3600 450-314 894-934-174 618 720-618 720 934-174 314 894 316-894 932 174-618-720 618-720-932 174-316-894z"/>
<path class="Rand3" d="m7425 3600h-7650"/>
<path class="Rand3" d="m1575 7425v-3825"/>
<path class="Rand3" d="m2925 7425v-3825"/>
<path class="Rand3" d="m4275 7425v-3825"/>
<path class="Rand3" d="m5625 7425v-3825"/>
</g>
<path class="Rand6" d="m360 4140a3240 3240 0 0 0 6480 0v-3870h-6480v3870z"/>
</g>
</svg>

<?xml version="1.0" encoding="iso-8859-1"?>
<!DOCTYPE svg PUBLIC "-//W3C//DTD SVG 1.1//EN" "http://www.w3.org/Graphics/SVG/1.1/DTD/svg11.dtd">
<!-- Auto-generated by fig2svg tool
     Date: Thu Oct 26 13:16:34 2006 -->
<svg xmlns="http://www.w3.org/2000/svg"
     width="438" height="480" viewBox="21 15 438 480">
<metadata>
 xmlns:rdf="http://www.w3.org/1999/02/22-rdf-syntax-ns#"
         xmlns:dc="http://purl.org/dc/elements/1.1/">

 dc:title="Wappen Jenaz (CH-GR)"
 dc:date="2006-10-26"
 dc:format="image/svg+xml"
 dc:language="de">
 dc:creator="http://de.wikipedia.org/wiki/Benutzer:Bernina" 
</metadata>
<title>
Wappen Jenaz (CH-GR)
</title>
<defs>
<clipPath id="clippath">
<path d="M360,4140 A3240,3240 0.0 0 0 6840,4140 L6840,270 L360,270 L360,4140 Z" />
</clipPath>
<style type="text/css">
  <![CDATA[
  .Rand2 { stroke: #202020; stroke-width:30; }
  .Rand3 { stroke: #202020; stroke-width:45; }
  .Rand6 { stroke: #202020; stroke-width:90; }
  .Blau { fill: #0000ff; }
  .Gold { fill: #ffef00; }
  ]]>
</style>
</defs>
<g stroke="none" stroke-miterlimit="10" stroke-width="10"
   stroke-linecap="butt" stroke-linejoin="miter"
   fill="none" fill-rule="evenodd" transform="scale(0.066667)">
<g clip-path="url(#clippath)">
<path id="feldo-1" class="Blau"
      d="M-225,3600 L7425,3600 L7425,-225 L-225,-225 L-225,3600 Z" />
<path id="feldu-1" class="Gold"
      d="M-225,3600 L-225,7425 L7425,7425 L7425,3600 L-225,3600 Z" />
<path id="pfahl-1" class="Blau"
      d="M1575,3600 L1575,7425 L2925,7425 L2925,3600 L1575,3600 Z" />
<path id="pfahl-2" class="Blau"
      d="M4275,3600 L4275,7425 L5625,7425 L5625,3600 L4275,3600 Z" />
<path id="stern-1" class="Gold Rand2"
      d="M3600,450 L3286,1344 L2352,1170 L2970,1890 L2352,2610 L3286,2436
         L3600,3330 L3916,2436 L4848,2610 L4230,1890 L4848,1170 L3916,1344
         L3600,450 Z" />
<path id="linie-1" class="Rand3" d="M7425,3600 L-225,3600" />
<path id="linie-2" class="Rand3" d="M1575,7425 L1575,3600" />
<path id="linie-3" class="Rand3" d="M2925,7425 L2925,3600" />
<path id="linie-4" class="Rand3" d="M4275,7425 L4275,3600" />
<path id="linie-5" class="Rand3" d="M5625,7425 L5625,3600" />
</g>
<path id="clip-boundary" class="Rand6"
      d="M360,4140 A3240,3240 0.0 0 0 6840,4140 L6840,270 L360,270 L360,4140 Z" />
</g>
</svg>
